src/assets/img/components/advantagesTriangle/list.svg

<svg width="42" height="53" viewBox="0 0 42 53" fill="none" xmlns="http://www.w3.org/2000/svg">
<path fill-rule="evenodd" clip-rule="evenodd" d="M0 4C0 1.79086 1.79086 0 4 0H37C39.2091 0 41 1.79086 41 4V40C41 40.5523 40.5523 41 40 41C39.4477 41 39 40.5523 39 40V4C39 2.89543 38.1046 2 37 2H4C2.89543 2 2 2.89543 2 4V48C2 49.1046 2.89543 50 4 50H24.8875C25.4398 50 25.8875 50.4477 25.8875 51C25.8875 51.5523 25.4398 52 24.8875 52H4C1.79086 52 0 50.2091 0 48V4ZM41.2071 43.2929C41.5976 43.6834 41.5976 44.3166 41.2071 44.7071L33.7071 52.2071C33.3166 52.5976 32.6834 52.5976 32.2929 52.2071L28.2929 48.2071C27.9024 47.8166 27.9024 47.1834 28.2929 46.7929C28.6834 46.4024 29.3166 46.4024 29.7071 46.7929L33 50.0858L39.7929 43.2929C40.1834 42.9024 40.8166 42.9024 41.2071 43.2929ZM7 7C6.44772 7 6 7.44772 6 8C6 8.55229 6.44772 9 7 9H21C21.5523 9 22 8.55229 22 8C22 7.44772 21.5523 7 21 7H7ZM6 18C6 17.4477 6.44772 17 7 17H31C31.5523 17 32 17.4477 32 18C32 18.5523 31.5523 19 31 19H7C6.44772 19 6 18.5523 6 18ZM7 23C6.44772 23 6 23.4477 6 24C6 24.5523 6.44772 25 7 25H27C27.5523 25 28 24.5523 28 24C28 23.4477 27.5523 23 27 23H7ZM6 36C6 35.4477 6.44772 35 7 35H13C13.5523 35 14 35.4477 14 36C14 36.5523 13.5523 37 13 37H7C6.44772 37 6 36.5523 6 36ZM17 35C16.4477 35 16 35.4477 16 36C16 36.5523 16.4477 37 17 37H27C27.5523 37 28 36.5523 28 36C28 35.4477 27.5523 35 27 35H17Z" fill="#41456B"/>
</svg>

<svg width="42" height="53" fill="none" xmlns="http://www.w3.org/2000/svg"><path fill-rule="evenodd" clip-rule="evenodd" d="M0 4a4 4 0 0 1 4-4h33a4 4 0 0 1 4 4v36a1 1 0 1 1-2 0V4a2 2 0 0 0-2-2H4a2 2 0 0 0-2 2v44a2 2 0 0 0 2 2h20.887a1 1 0 1 1 0 2H4a4 4 0 0 1-4-4V4Zm41.207 39.293a1 1 0 0 1 0 1.414l-7.5 7.5a1 1 0 0 1-1.414 0l-4-4a1 1 0 0 1 1.414-1.414L33 50.086l6.793-6.793a1 1 0 0 1 1.414 0ZM7 7a1 1 0 0 0 0 2h14a1 1 0 1 0 0-2H7ZM6 18a1 1 0 0 1 1-1h24a1 1 0 1 1 0 2H7a1 1 0 0 1-1-1Zm1 5a1 1 0 1 0 0 2h20a1 1 0 1 0 0-2H7ZM6 36a1 1 0 0 1 1-1h6a1 1 0 1 1 0 2H7a1 1 0 0 1-1-1Zm11-1a1 1 0 1 0 0 2h10a1 1 0 1 0 0-2H17Z" fill="#41456B"/></svg>
